images/439487.svg

<?xml version="1.0" encoding="UTF-8"?>
<svg xmlns="http://www.w3.org/2000/svg" xmlns:xlink="http://www.w3.org/1999/xlink" width="300pt" height="300pt" viewBox="0 0 300 300" version="1.1">
<defs>
<g>
<symbol overflow="visible" id="glyph0-0">
<path style="stroke:none;" d="M 0.453125 1.59375 L 0.453125 -6.34375 L 4.953125 -6.34375 L 4.953125 1.59375 Z M 0.953125 1.09375 L 4.453125 1.09375 L 4.453125 -5.84375 L 0.953125 -5.84375 Z M 0.953125 1.09375 "/>
</symbol>
<symbol overflow="visible" id="glyph0-1">
<path style="stroke:none;" d="M 3.546875 -5.953125 C 2.898438 -5.953125 2.382812 -5.710938 2 -5.234375 C 1.625 -4.753906 1.4375 -4.101562 1.4375 -3.28125 C 1.4375 -2.445312 1.625 -1.789062 2 -1.3125 C 2.382812 -0.832031 2.898438 -0.59375 3.546875 -0.59375 C 4.191406 -0.59375 4.703125 -0.832031 5.078125 -1.3125 C 5.453125 -1.789062 5.640625 -2.445312 5.640625 -3.28125 C 5.640625 -4.101562 5.453125 -4.753906 5.078125 -5.234375 C 4.703125 -5.710938 4.191406 -5.953125 3.546875 -5.953125 Z M 3.546875 -6.6875 C 4.460938 -6.6875 5.195312 -6.375 5.75 -5.75 C 6.300781 -5.132812 6.578125 -4.3125 6.578125 -3.28125 C 6.578125 -2.238281 6.300781 -1.410156 5.75 -0.796875 C 5.195312 -0.179688 4.460938 0.125 3.546875 0.125 C 2.617188 0.125 1.878906 -0.179688 1.328125 -0.796875 C 0.773438 -1.410156 0.5 -2.238281 0.5 -3.28125 C 0.5 -4.3125 0.773438 -5.132812 1.328125 -5.75 C 1.878906 -6.375 2.617188 -6.6875 3.546875 -6.6875 Z M 3.546875 -6.6875 "/>
</symbol>
<symbol overflow="visible" id="glyph0-2">
<path style="stroke:none;" d="M 0.890625 -6.5625 L 2.078125 -6.5625 L 4.984375 -1.078125 L 4.984375 -6.5625 L 5.84375 -6.5625 L 5.84375 0 L 4.65625 0 L 1.75 -5.484375 L 1.75 0 L 0.890625 0 Z M 0.890625 -6.5625 "/>
</symbol>
<symbol overflow="visible" id="glyph0-3">
<path style="stroke:none;" d="M 0.890625 -6.5625 L 1.765625 -6.5625 L 1.765625 -3.875 L 5 -3.875 L 5 -6.5625 L 5.890625 -6.5625 L 5.890625 0 L 5 0 L 5 -3.125 L 1.765625 -3.125 L 1.765625 0 L 0.890625 0 Z M 0.890625 -6.5625 "/>
</symbol>
<symbol overflow="visible" id="glyph1-0">
<path style="stroke:none;" d="M 0.40625 1.421875 L 0.40625 -5.640625 L 4.40625 -5.640625 L 4.40625 1.421875 Z M 0.84375 0.96875 L 3.953125 0.96875 L 3.953125 -5.1875 L 0.84375 -5.1875 Z M 0.84375 0.96875 "/>
</symbol>
<symbol overflow="visible" id="glyph1-1">
<path style="stroke:none;" d="M 1.53125 -0.671875 L 4.296875 -0.671875 L 4.296875 0 L 0.59375 0 L 0.59375 -0.671875 C 0.882812 -0.972656 1.289062 -1.382812 1.8125 -1.90625 C 2.332031 -2.4375 2.65625 -2.773438 2.78125 -2.921875 C 3.039062 -3.203125 3.21875 -3.441406 3.3125 -3.640625 C 3.414062 -3.835938 3.46875 -4.03125 3.46875 -4.21875 C 3.46875 -4.53125 3.359375 -4.785156 3.140625 -4.984375 C 2.921875 -5.179688 2.640625 -5.28125 2.296875 -5.28125 C 2.046875 -5.28125 1.78125 -5.234375 1.5 -5.140625 C 1.226562 -5.054688 0.9375 -4.925781 0.625 -4.75 L 0.625 -5.546875 C 0.945312 -5.679688 1.242188 -5.78125 1.515625 -5.84375 C 1.796875 -5.90625 2.050781 -5.9375 2.28125 -5.9375 C 2.882812 -5.9375 3.363281 -5.785156 3.71875 -5.484375 C 4.082031 -5.179688 4.265625 -4.78125 4.265625 -4.28125 C 4.265625 -4.039062 4.21875 -3.8125 4.125 -3.59375 C 4.03125 -3.375 3.867188 -3.117188 3.640625 -2.828125 C 3.566406 -2.753906 3.351562 -2.535156 3 -2.171875 C 2.65625 -1.816406 2.164062 -1.316406 1.53125 -0.671875 Z M 1.53125 -0.671875 "/>
</symbol>
</g>
</defs>
<g id="surface46729">
<rect x="0" y="0" width="300" height="300" style="fill:rgb(100%,100%,100%);fill-opacity:1;stroke:none;"/>
<path style="fill:none;stroke-width:1.2;stroke-linecap:butt;stroke-linejoin:miter;stroke:rgb(0%,0%,0%);stroke-opacity:1;stroke-miterlimit:10;" d="M 155.722656 206.53125 L 148.953125 187.863281 "/>
<path style="fill:none;stroke-width:1.2;stroke-linecap:butt;stroke-linejoin:miter;stroke:rgb(0%,0%,0%);stroke-opacity:1;stroke-miterlimit:10;" d="M 148.953125 187.863281 L 161.734375 172.671875 "/>
<path style="fill:none;stroke-width:1.2;stroke-linecap:butt;stroke-linejoin:miter;stroke:rgb(0%,0%,0%);stroke-opacity:1;stroke-miterlimit:10;" d="M 148.953125 187.863281 L 129.402344 184.394531 "/>
<path style="fill:none;stroke-width:1;stroke-linecap:butt;stroke-linejoin:miter;stroke:rgb(0%,0%,0%);stroke-opacity:1;stroke-miterlimit:10;" d="M 122.632812 165.726562 L 122.632812 165.726562 M 123.152344 168.679688 L 124.132812 168.324219 M 123.667969 171.636719 L 125.628906 170.925781 M 124.183594 174.589844 L 127.125 173.523438 M 124.703125 177.546875 L 128.621094 176.125 M 125.21875 180.5 L 130.121094 178.722656 M 125.734375 183.457031 L 131.617188 181.324219 M 126.109375 185.585938 L 132.695312 183.199219 "/>
<path style="fill:none;stroke-width:1.2;stroke-linecap:butt;stroke-linejoin:miter;stroke:rgb(0%,0%,0%);stroke-opacity:1;stroke-miterlimit:10;" d="M 122.632812 165.726562 L 135.417969 150.53125 "/>
<path style="fill:none;stroke-width:1.2;stroke-linecap:butt;stroke-linejoin:miter;stroke:rgb(0%,0%,0%);stroke-opacity:1;stroke-miterlimit:10;" d="M 122.632812 165.726562 L 112.859375 163.988281 "/>
<path style="fill:none;stroke-width:1.2;stroke-linecap:butt;stroke-linejoin:miter;stroke:rgb(0%,0%,100%);stroke-opacity:1;stroke-miterlimit:10;" d="M 112.859375 163.988281 L 103.082031 162.253906 "/>
<path style="fill:none;stroke-width:1.2;stroke-linecap:butt;stroke-linejoin:miter;stroke:rgb(0%,0%,0%);stroke-opacity:1;stroke-miterlimit:10;" d="M 137.613281 149.734375 L 134.230469 140.398438 "/>
<path style="fill:none;stroke-width:1.2;stroke-linecap:butt;stroke-linejoin:miter;stroke:rgb(100%,0%,0%);stroke-opacity:1;stroke-miterlimit:10;" d="M 134.230469 140.398438 L 130.84375 131.066406 "/>
<path style="fill:none;stroke-width:1.2;stroke-linecap:butt;stroke-linejoin:miter;stroke:rgb(0%,0%,0%);stroke-opacity:1;stroke-miterlimit:10;" d="M 133.21875 151.324219 L 129.835938 141.992188 "/>
<path style="fill:none;stroke-width:1.2;stroke-linecap:butt;stroke-linejoin:miter;stroke:rgb(100%,0%,0%);stroke-opacity:1;stroke-miterlimit:10;" d="M 129.835938 141.992188 L 126.453125 132.660156 "/>
<path style="fill:none;stroke-width:1.2;stroke-linecap:butt;stroke-linejoin:miter;stroke:rgb(0%,0%,0%);stroke-opacity:1;stroke-miterlimit:10;" d="M 135.417969 150.53125 L 145.191406 152.265625 "/>
<path style="fill:none;stroke-width:1.2;stroke-linecap:butt;stroke-linejoin:miter;stroke:rgb(0%,0%,100%);stroke-opacity:1;stroke-miterlimit:10;" d="M 145.191406 152.265625 L 154.96875 154.003906 "/>
<path style=" stroke:none;fill-rule:nonzero;fill:rgb(100%,100%,100%);fill-opacity:1;" d="M 120.648438 126.363281 L 128.648438 126.363281 L 128.648438 137.363281 L 120.648438 137.363281 Z M 120.648438 126.363281 "/>
<g style="fill:rgb(100%,0%,0%);fill-opacity:1;">
  <use xlink:href="#glyph0-1" x="120.648438" y="135.026367"/>
</g>
<path style="fill:none;stroke-width:1.2;stroke-linecap:butt;stroke-linejoin:miter;stroke:rgb(0%,0%,100%);stroke-opacity:1;stroke-miterlimit:10;" d="M 154.96875 154.003906 L 161.359375 146.40625 "/>
<path style="fill:none;stroke-width:1.2;stroke-linecap:butt;stroke-linejoin:miter;stroke:rgb(0%,0%,0%);stroke-opacity:1;stroke-miterlimit:10;" d="M 161.359375 146.40625 L 167.75 138.808594 "/>
<path style=" stroke:none;fill-rule:nonzero;fill:rgb(100%,100%,100%);fill-opacity:1;" d="M 147.96875 148.503906 L 161.96875 148.503906 L 161.96875 159.503906 L 147.96875 159.503906 Z M 147.96875 148.503906 "/>
<g style="fill:rgb(0%,0%,100%);fill-opacity:1;">
  <use xlink:href="#glyph0-2" x="147.96875" y="157.166992"/>
  <use xlink:href="#glyph0-3" x="154.946289" y="157.166992"/>
</g>
<path style="fill:none;stroke-width:1.2;stroke-linecap:butt;stroke-linejoin:miter;stroke:rgb(0%,0%,0%);stroke-opacity:1;stroke-miterlimit:10;" d="M 167.75 138.808594 L 187.300781 142.28125 "/>
<path style="fill:none;stroke-width:1.2;stroke-linecap:butt;stroke-linejoin:miter;stroke:rgb(0%,0%,0%);stroke-opacity:1;stroke-miterlimit:10;" d="M 187.300781 142.28125 L 200.082031 127.085938 "/>
<path style="fill:none;stroke-width:1.2;stroke-linecap:butt;stroke-linejoin:miter;stroke:rgb(0%,0%,0%);stroke-opacity:1;stroke-miterlimit:10;" d="M 200.082031 127.085938 L 219.632812 130.554688 "/>
<path style="fill:none;stroke-width:1.2;stroke-linecap:butt;stroke-linejoin:miter;stroke:rgb(0%,0%,0%);stroke-opacity:1;stroke-miterlimit:10;" d="M 219.632812 130.554688 L 226.023438 122.957031 "/>
<path style="fill:none;stroke-width:1.2;stroke-linecap:butt;stroke-linejoin:miter;stroke:rgb(0%,0%,100%);stroke-opacity:1;stroke-miterlimit:10;" d="M 226.023438 122.957031 L 232.417969 115.359375 "/>
<path style="fill:none;stroke-width:1.2;stroke-linecap:butt;stroke-linejoin:miter;stroke:rgb(0%,0%,100%);stroke-opacity:1;stroke-miterlimit:10;" d="M 232.417969 115.359375 L 242.191406 117.097656 "/>
<path style="fill:none;stroke-width:1.2;stroke-linecap:butt;stroke-linejoin:miter;stroke:rgb(0%,0%,0%);stroke-opacity:1;stroke-miterlimit:10;" d="M 242.191406 117.097656 L 251.96875 118.832031 "/>
<path style="fill:none;stroke-width:1.2;stroke-linecap:butt;stroke-linejoin:miter;stroke:rgb(0%,0%,100%);stroke-opacity:1;stroke-miterlimit:10;" d="M 233.554688 120.308594 L 241.375 121.699219 "/>
<path style="fill:none;stroke-width:1.2;stroke-linecap:butt;stroke-linejoin:miter;stroke:rgb(0%,0%,0%);stroke-opacity:1;stroke-miterlimit:10;" d="M 241.375 121.699219 L 249.195312 123.085938 "/>
<path style=" stroke:none;fill-rule:nonzero;fill:rgb(100%,100%,100%);fill-opacity:1;" d="M 229.417969 109.859375 L 236.417969 109.859375 L 236.417969 120.859375 L 229.417969 120.859375 Z M 229.417969 109.859375 "/>
<g style="fill:rgb(0%,0%,100%);fill-opacity:1;">
  <use xlink:href="#glyph0-2" x="229.417969" y="118.522461"/>
</g>
<path style="fill:none;stroke-width:1.2;stroke-linecap:butt;stroke-linejoin:miter;stroke:rgb(0%,0%,0%);stroke-opacity:1;stroke-miterlimit:10;" d="M 251.96875 118.832031 L 258.359375 111.234375 "/>
<path style="fill:none;stroke-width:1.2;stroke-linecap:butt;stroke-linejoin:miter;stroke:rgb(0%,0%,100%);stroke-opacity:1;stroke-miterlimit:10;" d="M 258.359375 111.234375 L 264.75 103.636719 "/>
<path style="fill:none;stroke-width:1.2;stroke-linecap:butt;stroke-linejoin:miter;stroke:rgb(0%,0%,0%);stroke-opacity:1;stroke-miterlimit:10;" d="M 251.96875 118.832031 L 255.351562 128.167969 "/>
<path style="fill:none;stroke-width:1.2;stroke-linecap:butt;stroke-linejoin:miter;stroke:rgb(0%,0%,100%);stroke-opacity:1;stroke-miterlimit:10;" d="M 255.351562 128.167969 L 258.734375 137.5 "/>
<path style=" stroke:none;fill-rule:nonzero;fill:rgb(100%,100%,100%);fill-opacity:1;" d="M 255.75 95.636719 L 274.75 95.636719 L 274.75 111.636719 L 255.75 111.636719 Z M 255.75 95.636719 "/>
<g style="fill:rgb(0%,0%,100%);fill-opacity:1;">
  <use xlink:href="#glyph0-2" x="255.75" y="104.299805"/>
  <use xlink:href="#glyph0-3" x="262.727539" y="104.299805"/>
</g>
<g style="fill:rgb(0%,0%,100%);fill-opacity:1;">
  <use xlink:href="#glyph1-1" x="269.742188" y="109.182617"/>
</g>
<path style=" stroke:none;fill-rule:nonzero;fill:rgb(100%,100%,100%);fill-opacity:1;" d="M 249.734375 129.5 L 268.734375 129.5 L 268.734375 145.5 L 249.734375 145.5 Z M 249.734375 129.5 "/>
<g style="fill:rgb(0%,0%,100%);fill-opacity:1;">
  <use xlink:href="#glyph0-2" x="249.734375" y="138.163086"/>
  <use xlink:href="#glyph0-3" x="256.711914" y="138.163086"/>
</g>
<g style="fill:rgb(0%,0%,100%);fill-opacity:1;">
  <use xlink:href="#glyph1-1" x="263.726562" y="143.045898"/>
</g>
<path style="fill:none;stroke-width:1.2;stroke-linecap:butt;stroke-linejoin:miter;stroke:rgb(0%,0%,100%);stroke-opacity:1;stroke-miterlimit:10;" d="M 103.082031 162.253906 L 99.699219 152.917969 "/>
<path style="fill:none;stroke-width:1.2;stroke-linecap:butt;stroke-linejoin:miter;stroke:rgb(0%,0%,0%);stroke-opacity:1;stroke-miterlimit:10;" d="M 99.699219 152.917969 L 96.316406 143.585938 "/>
<path style=" stroke:none;fill-rule:nonzero;fill:rgb(100%,100%,100%);fill-opacity:1;" d="M 96.082031 156.753906 L 110.082031 156.753906 L 110.082031 167.753906 L 96.082031 167.753906 Z M 96.082031 156.753906 "/>
<g style="fill:rgb(0%,0%,100%);fill-opacity:1;">
  <use xlink:href="#glyph0-2" x="96.082031" y="165.416992"/>
  <use xlink:href="#glyph0-3" x="103.05957" y="165.416992"/>
</g>
<path style="fill:none;stroke-width:1.2;stroke-linecap:butt;stroke-linejoin:miter;stroke:rgb(0%,0%,0%);stroke-opacity:1;stroke-miterlimit:10;" d="M 98.101562 145.089844 L 104.492188 137.492188 "/>
<path style="fill:none;stroke-width:1.2;stroke-linecap:butt;stroke-linejoin:miter;stroke:rgb(100%,0%,0%);stroke-opacity:1;stroke-miterlimit:10;" d="M 104.492188 137.492188 L 110.886719 129.894531 "/>
<path style="fill:none;stroke-width:1.2;stroke-linecap:butt;stroke-linejoin:miter;stroke:rgb(0%,0%,0%);stroke-opacity:1;stroke-miterlimit:10;" d="M 94.527344 142.082031 L 100.917969 134.484375 "/>
<path style="fill:none;stroke-width:1.2;stroke-linecap:butt;stroke-linejoin:miter;stroke:rgb(100%,0%,0%);stroke-opacity:1;stroke-miterlimit:10;" d="M 100.917969 134.484375 L 107.308594 126.886719 "/>
<path style="fill:none;stroke-width:1;stroke-linecap:butt;stroke-linejoin:miter;stroke:rgb(0%,0%,0%);stroke-opacity:1;stroke-miterlimit:10;" d="M 76.765625 140.113281 L 76.765625 140.113281 M 79.582031 141.144531 L 79.765625 140.117188 M 82.398438 142.171875 L 82.765625 140.121094 M 85.21875 143.203125 L 85.765625 140.121094 M 88.035156 144.234375 L 88.765625 140.125 M 90.851562 145.261719 L 91.765625 140.128906 M 93.671875 146.292969 L 94.765625 140.132812 M 95.703125 147.035156 L 96.929688 140.136719 "/>
<path style=" stroke:none;fill-rule:nonzero;fill:rgb(100%,100%,100%);fill-opacity:1;" d="M 105.097656 122.890625 L 113.097656 122.890625 L 113.097656 133.890625 L 105.097656 133.890625 Z M 105.097656 122.890625 "/>
<g style="fill:rgb(100%,0%,0%);fill-opacity:1;">
  <use xlink:href="#glyph0-1" x="105.097656" y="131.553711"/>
</g>
<path style="fill:none;stroke-width:1.2;stroke-linecap:butt;stroke-linejoin:miter;stroke:rgb(0%,0%,0%);stroke-opacity:1;stroke-miterlimit:10;" d="M 76.765625 140.113281 L 61.570312 127.328125 "/>
<path style="fill:none;stroke-width:1.2;stroke-linecap:butt;stroke-linejoin:miter;stroke:rgb(100%,0%,0%);stroke-opacity:1;stroke-miterlimit:10;" d="M 58.097656 146.878906 L 67.429688 143.496094 "/>
<path style="fill:none;stroke-width:1.2;stroke-linecap:butt;stroke-linejoin:miter;stroke:rgb(0%,0%,0%);stroke-opacity:1;stroke-miterlimit:10;" d="M 67.429688 143.496094 L 76.765625 140.113281 "/>
<path style="fill:none;stroke-width:1.2;stroke-linecap:butt;stroke-linejoin:miter;stroke:rgb(0%,0%,0%);stroke-opacity:1;stroke-miterlimit:10;" d="M 61.570312 127.328125 L 59.832031 137.105469 "/>
<path style="fill:none;stroke-width:1.2;stroke-linecap:butt;stroke-linejoin:miter;stroke:rgb(100%,0%,0%);stroke-opacity:1;stroke-miterlimit:10;" d="M 59.832031 137.105469 L 58.097656 146.878906 "/>
<path style=" stroke:none;fill-rule:nonzero;fill:rgb(0%,0%,0%);fill-opacity:1;" d="M 61.570312 127.328125 L 58.09375 107.46875 L 51.507812 109.855469 Z M 61.570312 127.328125 "/>
<path style=" stroke:none;fill-rule:nonzero;fill:rgb(100%,100%,100%);fill-opacity:1;" d="M 54.097656 141.378906 L 62.097656 141.378906 L 62.097656 152.378906 L 54.097656 152.378906 Z M 54.097656 141.378906 "/>
<g style="fill:rgb(100%,0%,0%);fill-opacity:1;">
  <use xlink:href="#glyph0-1" x="54.097656" y="150.041992"/>
</g>
<path style="fill:none;stroke-width:1.2;stroke-linecap:butt;stroke-linejoin:miter;stroke:rgb(0%,0%,0%);stroke-opacity:1;stroke-miterlimit:10;" d="M 55.210938 106.363281 L 45.433594 104.625 "/>
<path style="fill:none;stroke-width:1.2;stroke-linecap:butt;stroke-linejoin:miter;stroke:rgb(100%,0%,0%);stroke-opacity:1;stroke-miterlimit:10;" d="M 45.433594 104.625 L 35.660156 102.890625 "/>
<path style="fill:none;stroke-width:1.2;stroke-linecap:butt;stroke-linejoin:miter;stroke:rgb(0%,0%,0%);stroke-opacity:1;stroke-miterlimit:10;" d="M 54.390625 110.960938 L 44.617188 109.226562 "/>
<path style="fill:none;stroke-width:1.2;stroke-linecap:butt;stroke-linejoin:miter;stroke:rgb(100%,0%,0%);stroke-opacity:1;stroke-miterlimit:10;" d="M 44.617188 109.226562 L 34.839844 107.488281 "/>
<path style="fill:none;stroke-width:1.2;stroke-linecap:butt;stroke-linejoin:miter;stroke:rgb(0%,0%,0%);stroke-opacity:1;stroke-miterlimit:10;" d="M 54.800781 108.664062 L 61.191406 101.066406 "/>
<path style="fill:none;stroke-width:1.2;stroke-linecap:butt;stroke-linejoin:miter;stroke:rgb(100%,0%,0%);stroke-opacity:1;stroke-miterlimit:10;" d="M 61.191406 101.066406 L 67.582031 93.46875 "/>
<path style=" stroke:none;fill-rule:nonzero;fill:rgb(100%,100%,100%);fill-opacity:1;" d="M 27.25 99.691406 L 35.25 99.691406 L 35.25 110.691406 L 27.25 110.691406 Z M 27.25 99.691406 "/>
<g style="fill:rgb(100%,0%,0%);fill-opacity:1;">
  <use xlink:href="#glyph0-1" x="27.25" y="108.354492"/>
</g>
<path style=" stroke:none;fill-rule:nonzero;fill:rgb(100%,100%,100%);fill-opacity:1;" d="M 60.582031 87.96875 L 75.582031 87.96875 L 75.582031 98.96875 L 60.582031 98.96875 Z M 60.582031 87.96875 "/>
<g style="fill:rgb(100%,0%,0%);fill-opacity:1;">
  <use xlink:href="#glyph0-1" x="60.582031" y="96.631836"/>
  <use xlink:href="#glyph0-3" x="67.923828" y="96.631836"/>
</g>
</g>
</svg>

<svg xmlns="http://www.w3.org/2000/svg" xmlns:xlink="http://www.w3.org/1999/xlink" width="300pt" height="300pt" viewBox="0 0 300 300"><defs><symbol overflow="visible"><path d="M.453 1.594v-7.938h4.5v7.938zm.5-.5h3.5v-6.938h-3.5zm0 0"/></symbol><symbol overflow="visible" id="a"><path d="M3.547-5.953c-.65 0-1.164.242-1.547.72-.375.48-.563 1.13-.563 1.952 0 .835.188 1.49.563 1.967.383.48.898.72 1.547.72.644 0 1.156-.24 1.53-.72.376-.476.564-1.132.564-1.968 0-.822-.187-1.474-.562-1.954-.375-.477-.887-.72-1.53-.72zm0-.734c.914 0 1.648.312 2.203.937.55.617.828 1.438.828 2.47 0 1.042-.277 1.87-.828 2.483-.555.617-1.29.922-2.203.922-.93 0-1.668-.305-2.22-.922C.774-1.41.5-2.237.5-3.28c0-1.033.273-1.853.828-2.47.55-.625 1.29-.938 2.22-.938zm0 0"/></symbol><symbol overflow="visible" id="b"><path d="M.89-6.563H2.08l2.906 5.485v-5.484h.86V0H4.656L1.75-5.484V0H.89zm0 0"/></symbol><symbol overflow="visible" id="c"><path d="M.89-6.563h.876v2.688H5v-2.688h.89V0H5v-3.125H1.766V0H.89zm0 0"/></symbol><symbol overflow="visible"><path d="M.406 1.422V-5.64h4V1.42zM.844.97h3.11v-6.157H.843zm0 0"/></symbol><symbol overflow="visible" id="d"><path d="M1.53-.672h2.767V0H.594v-.672c.29-.3.695-.71 1.22-1.234.518-.532.842-.867.967-1.016.26-.28.44-.52.533-.72.1-.194.156-.39.156-.577 0-.31-.11-.565-.33-.764-.218-.196-.5-.297-.843-.297-.25 0-.516.046-.797.14-.273.085-.563.214-.875.39v-.797c.32-.133.617-.234.89-.297.282-.062.536-.093.766-.093.603 0 1.083.152 1.44.453.362.304.546.703.546 1.203 0 .24-.047.468-.14.686-.095.22-.26.477-.485.766-.074.074-.288.293-.64.656-.344.356-.836.856-1.47 1.5zm0 0"/></symbol></defs><g><path fill="#fff" d="M0 0h300v300H0z"/><path d="M155.723 206.53l-6.77-18.667M148.953 187.863l12.78-15.19M148.953 187.863l-19.55-3.468" stroke-width="1.2" stroke="#000" stroke-miterlimit="10" fill="none"/><path d="M122.633 165.727m.52 2.953l.98-.356m-.465 3.313l1.96-.71m-1.444 3.663l2.94-1.067m-2.42 4.024l3.917-1.422m-3.4 4.375l4.9-1.777m-4.386 4.734l5.883-2.133m-5.508 4.262l6.585-2.387" stroke="#000" stroke-miterlimit="10" fill="none"/><path d="M122.633 165.727l12.785-15.196M122.633 165.727l-9.774-1.74" stroke-width="1.2" stroke="#000" stroke-miterlimit="10" fill="none"/><path d="M112.86 163.988l-9.778-1.734" stroke-width="1.2" stroke="#00f" stroke-miterlimit="10" fill="none"/><path d="M137.613 149.734l-3.383-9.336" stroke-width="1.2" stroke="#000" stroke-miterlimit="10" fill="none"/><path d="M134.23 140.398l-3.386-9.332" stroke-width="1.2" stroke="#f00" stroke-miterlimit="10" fill="none"/><path d="M133.22 151.324l-3.384-9.332" stroke-width="1.2" stroke="#000" stroke-miterlimit="10" fill="none"/><path d="M129.836 141.992l-3.383-9.332" stroke-width="1.2" stroke="#f00" stroke-miterlimit="10" fill="none"/><path d="M135.418 150.53l9.773 1.736" stroke-width="1.2" stroke="#000" stroke-miterlimit="10" fill="none"/><path d="M145.19 152.266l9.78 1.738" stroke-width="1.2" stroke="#00f" stroke-miterlimit="10" fill="none"/><path d="M120.648 126.363h8v11h-8zm0 0" fill="#fff"/><use xlink:href="#a" x="120.648" y="135.026" fill="#f00"/><path d="M154.97 154.004l6.39-7.598" stroke-width="1.2" stroke="#00f" stroke-miterlimit="10" fill="none"/><path d="M161.36 146.406l6.39-7.597" stroke-width="1.2" stroke="#000" stroke-miterlimit="10" fill="none"/><path d="M147.97 148.504h14v11h-14zm0 0" fill="#fff"/><g fill="#00f"><use xlink:href="#b" x="147.969" y="157.167"/><use xlink:href="#c" x="154.946" y="157.167"/></g><path d="M167.75 138.81l19.55 3.47M187.3 142.28l12.782-15.194M200.082 127.086l19.55 3.47M219.633 130.555l6.39-7.598" stroke-width="1.2" stroke="#000" stroke-miterlimit="10" fill="none"/><path d="M226.023 122.957l6.395-7.598M232.418 115.36l9.773 1.738" stroke-width="1.2" stroke="#00f" stroke-miterlimit="10" fill="none"/><path d="M242.19 117.098l9.78 1.734" stroke-width="1.2" stroke="#000" stroke-miterlimit="10" fill="none"/><path d="M233.555 120.31l7.82 1.39" stroke-width="1.2" stroke="#00f" stroke-miterlimit="10" fill="none"/><path d="M241.375 121.7l7.82 1.386" stroke-width="1.2" stroke="#000" stroke-miterlimit="10" fill="none"/><path d="M229.418 109.86h7v11h-7zm0 0" fill="#fff"/><use xlink:href="#b" x="229.418" y="118.522" fill="#00f"/><path d="M251.97 118.832l6.39-7.598" stroke-width="1.2" stroke="#000" stroke-miterlimit="10" fill="none"/><path d="M258.36 111.234l6.39-7.597" stroke-width="1.2" stroke="#00f" stroke-miterlimit="10" fill="none"/><path d="M251.97 118.832l3.382 9.336" stroke-width="1.2" stroke="#000" stroke-miterlimit="10" fill="none"/><path d="M255.352 128.168l3.382 9.332" stroke-width="1.2" stroke="#00f" stroke-miterlimit="10" fill="none"/><path d="M255.75 95.637h19v16h-19zm0 0" fill="#fff"/><g fill="#00f"><use xlink:href="#b" x="255.75" y="104.3"/><use xlink:href="#c" x="262.728" y="104.3"/></g><use xlink:href="#d" x="269.742" y="109.183" fill="#00f"/><path d="M249.734 129.5h19v16h-19zm0 0" fill="#fff"/><g fill="#00f"><use xlink:href="#b" x="249.734" y="138.163"/><use xlink:href="#c" x="256.712" y="138.163"/></g><use xlink:href="#d" x="263.727" y="143.046" fill="#00f"/><path d="M103.082 162.254l-3.383-9.336" stroke-width="1.2" stroke="#00f" stroke-miterlimit="10" fill="none"/><path d="M99.7 152.918l-3.384-9.332" stroke-width="1.2" stroke="#000" stroke-miterlimit="10" fill="none"/><path d="M96.082 156.754h14v11h-14zm0 0" fill="#fff"/><g fill="#00f"><use xlink:href="#b" x="96.082" y="165.417"/><use xlink:href="#c" x="103.06" y="165.417"/></g><path d="M98.102 145.09l6.39-7.598" stroke-width="1.2" stroke="#000" stroke-miterlimit="10" fill="none"/><path d="M104.492 137.492l6.395-7.597" stroke-width="1.2" stroke="#f00" stroke-miterlimit="10" fill="none"/><path d="M94.527 142.082l6.39-7.598" stroke-width="1.2" stroke="#000" stroke-miterlimit="10" fill="none"/><path d="M100.918 134.484l6.39-7.597" stroke-width="1.2" stroke="#f00" stroke-miterlimit="10" fill="none"/><path d="M76.766 140.113m2.816 1.032l.184-1.028m2.632 2.055l.368-2.05m2.453 3.08l.546-3.08m2.27 4.112l.73-4.11m2.086 5.138l.914-5.133m1.906 6.163l1.094-6.16m.937 6.902l1.227-6.898" stroke="#000" stroke-miterlimit="10" fill="none"/><path d="M105.098 122.89h8v11h-8zm0 0" fill="#fff"/><use xlink:href="#a" x="105.098" y="131.554" fill="#f00"/><path d="M76.766 140.113L61.57 127.328" stroke-width="1.2" stroke="#000" stroke-miterlimit="10" fill="none"/><path d="M58.098 146.88l9.332-3.384" stroke-width="1.2" stroke="#f00" stroke-miterlimit="10" fill="none"/><path d="M67.43 143.496l9.336-3.383M61.57 127.328l-1.738 9.777" stroke-width="1.2" stroke="#000" stroke-miterlimit="10" fill="none"/><path d="M59.832 137.105l-1.734 9.774" stroke-width="1.2" stroke="#f00" stroke-miterlimit="10" fill="none"/><path d="M61.57 127.328l-3.476-19.86-6.586 2.387zm0 0"/><path d="M54.098 141.38h8v11h-8zm0 0" fill="#fff"/><use xlink:href="#a" x="54.098" y="150.042" fill="#f00"/><path d="M55.21 106.363l-9.776-1.738" stroke-width="1.2" stroke="#000" stroke-miterlimit="10" fill="none"/><path d="M45.434 104.625l-9.774-1.734" stroke-width="1.2" stroke="#f00" stroke-miterlimit="10" fill="none"/><path d="M54.39 110.96l-9.773-1.733" stroke-width="1.2" stroke="#000" stroke-miterlimit="10" fill="none"/><path d="M44.617 109.227l-9.777-1.74" stroke-width="1.2" stroke="#f00" stroke-miterlimit="10" fill="none"/><path d="M54.8 108.664l6.39-7.598" stroke-width="1.2" stroke="#000" stroke-miterlimit="10" fill="none"/><path d="M61.19 101.066l6.392-7.597" stroke-width="1.2" stroke="#f00" stroke-miterlimit="10" fill="none"/><path d="M27.25 99.69h8v11h-8zm0 0" fill="#fff"/><use xlink:href="#a" x="27.25" y="108.354" fill="#f00"/><path d="M60.582 87.97h15v11h-15zm0 0" fill="#fff"/><g fill="#f00"><use xlink:href="#a" x="60.582" y="96.632"/><use xlink:href="#c" x="67.924" y="96.632"/></g></g></svg>
